svg/garage_lock.svg

<svg xmlns="http://www.w3.org/2000/svg" viewBox="0 0 24 24"><path d="M20.8 16v-1.5c0-1.4-1.4-2.5-2.8-2.5s-2.8 1.1-2.8 2.5V16c-.6 0-1.2.6-1.2 1.2v3.5c0 .7.6 1.3 1.2 1.3h5.5c.7 0 1.3-.6 1.3-1.2v-3.5c0-.7-.6-1.3-1.2-1.3m-1.3 0h-3v-1.5c0-.8.7-1.3 1.5-1.3s1.5.5 1.5 1.3zM5 12h8v2H5zm0 3h7.95c-.53.54-.87 1.24-.95 2H5zm7 5H5v-2h7zm2-9H4v9H2V9l7-4 7 4v1.44c-.81.36-1.5.92-2 1.62z"/></svg>

<svg xmlns="http://www.w3.org/2000/svg" id="mdi-garage-lock" viewBox="0 0 24 24"><path d="M20.8 16V14.5C20.8 13.1 19.4 12 18 12S15.2 13.1 15.2 14.5V16C14.6 16 14 16.6 14 17.2V20.7C14 21.4 14.6 22 15.2 22H20.7C21.4 22 22 21.4 22 20.8V17.3C22 16.6 21.4 16 20.8 16M19.5 16H16.5V14.5C16.5 13.7 17.2 13.2 18 13.2S19.5 13.7 19.5 14.5V16M5 12H13V14H5V12M5 15H12.95C12.42 15.54 12.08 16.24 12 17H5V15M12 20H5V18H12V20M14 11H4V20H2V9L9 5L16 9V10.44C15.19 10.8 14.5 11.36 14 12.06V11Z" /></svg>
